img/info2.svg

<svg width="92" height="92" viewBox="0 0 92 92" fill="none" xmlns="http://www.w3.org/2000/svg">
<g style="mix-blend-mode:multiply">
<circle cx="10.9824" cy="11.0596" r="10.5" fill="url(#paint0_linear_207_13)"/>
</g>
<path d="M57.4764 34.0816C60.0082 34.0816 62.0678 36.1412 62.0678 38.6729C62.0678 39.7562 61.6828 40.8088 60.9846 41.6344C60.6454 42.0366 60.569 42.5979 60.7905 43.0753C61.012 43.5526 61.4899 43.8575 62.0156 43.8575H72.5233C73.2692 43.8575 73.8739 43.2529 73.8739 42.5069V15.2861C73.8739 12.9554 71.9779 11.0596 69.6473 11.0596H15.209C12.8783 11.0596 10.9824 12.9556 10.9824 15.2861V69.7261C10.9824 72.0568 12.8784 73.9527 15.209 73.9527H42.4298C43.1757 73.9527 43.7803 73.348 43.7803 72.6021V64.4111C44.5708 64.6969 45.4116 64.8471 46.2631 64.8471C50.2842 64.8471 53.5568 61.5758 53.5568 57.5533C53.5568 53.5309 50.2842 50.2596 46.2631 50.2596C45.4102 50.2596 44.57 50.4098 43.7803 50.6956V43.8562H52.9375C53.4632 43.8562 53.9412 43.5514 54.1627 43.074C54.3841 42.5967 54.3078 42.0354 53.9685 41.6331C53.2697 40.8064 52.8853 39.755 52.8853 38.6717C52.8853 36.1399 54.9461 34.0803 57.4773 34.0803L57.4764 34.0816ZM15.2074 13.7609H41.0775V20.6002C40.287 20.3144 39.4462 20.1642 38.5948 20.1642C34.5736 20.1642 31.301 23.4356 31.301 27.458C31.301 31.4804 34.5736 34.7517 38.5948 34.7517C39.4476 34.7517 40.2878 34.6015 41.0775 34.3158V41.1551H31.9203C31.3946 41.1551 30.9166 41.4599 30.6952 41.9373C30.4737 42.4146 30.55 42.976 30.8893 43.3782C31.5881 44.2043 31.9725 45.2563 31.9725 46.3396C31.9725 48.8714 29.9129 50.931 27.3811 50.931C24.8493 50.931 22.7897 48.8714 22.7897 46.3396C22.7897 45.2564 23.1748 44.2038 23.873 43.3782C24.2122 42.976 24.2886 42.4146 24.0671 41.9373C23.8456 41.4599 23.3676 41.1551 22.8419 41.1551L13.6828 41.1544V15.286C13.6828 14.4459 14.3676 13.7611 15.2077 13.7611L15.2074 13.7609ZM46.2619 52.9619C48.7937 52.9619 50.8533 55.0215 50.8533 57.5533C50.8533 60.0851 48.7937 62.1447 46.2619 62.1447C45.1787 62.1447 44.1261 61.7596 43.3005 61.0615C42.8983 60.7222 42.3369 60.6459 41.8596 60.8673C41.3823 61.0888 41.0774 61.5668 41.0774 62.0925V71.2497L15.2073 71.2503C14.3672 71.2503 13.683 70.5668 13.683 69.726L13.6824 43.8576H20.5217C20.2359 44.648 20.0857 45.4888 20.0857 46.3403C20.0857 50.3614 23.357 53.634 27.3795 53.634C31.4019 53.634 34.6732 50.3627 34.6732 46.3403C34.6732 45.4874 34.523 44.6473 34.2372 43.8576H41.0766V53.0147C41.0766 53.5404 41.3814 54.0184 41.8588 54.2399C42.3361 54.4614 42.8975 54.385 43.2997 54.0458C44.1271 53.3476 45.1784 52.9626 46.2618 52.9626L46.2619 52.9619ZM50.1824 38.6724C50.1824 39.5253 50.3326 40.3655 50.6183 41.1552H43.779V31.998C43.779 31.4723 43.4741 30.9943 42.9968 30.7728C42.5195 30.5514 41.9581 30.6277 41.5559 30.967C40.7291 31.6658 39.6778 32.0502 38.5945 32.0502C36.0627 32.0502 34.0031 29.9906 34.0031 27.4588C34.0031 24.927 36.0627 22.8674 38.5945 22.8674C39.6777 22.8674 40.7303 23.2525 41.5559 23.9507C41.9581 24.2899 42.5195 24.3663 42.9968 24.1448C43.4741 23.9233 43.779 23.4453 43.779 22.9196V13.7605H69.6491C70.4892 13.7605 71.1734 14.444 71.1734 15.2848V41.1549H64.3341C64.6198 40.3644 64.77 39.5236 64.77 38.6721C64.77 34.651 61.4987 31.3784 57.4763 31.3784C53.4545 31.379 50.1825 34.6504 50.1825 38.6728L50.1824 38.6724ZM90.0123 58.6445H81.8213C82.1071 57.854 82.2573 57.0132 82.2573 56.1617C82.2573 52.1406 78.9847 48.868 74.9636 48.868C70.9424 48.868 67.6698 52.1406 67.6698 56.1617C67.6698 57.0146 67.82 57.8547 68.1058 58.6445H59.9159C59.17 58.6445 58.5654 59.2491 58.5654 59.995V70.5027C58.5654 71.0284 58.8702 71.5064 59.3476 71.7279C59.8249 71.9494 60.3863 71.873 60.7885 71.5337C61.6152 70.8349 62.6666 70.4505 63.7499 70.4505C66.2817 70.4505 68.3413 72.5101 68.3413 75.0419C68.3413 77.5737 66.2817 79.6333 63.7499 79.6333C62.6667 79.6333 61.6141 79.2482 60.7885 78.55C60.3863 78.2108 59.8249 78.1344 59.3476 78.3559C58.8702 78.5774 58.5654 79.0554 58.5654 79.5811V90.0888C58.5654 90.8347 59.17 91.4393 59.9159 91.4393H87.1367C89.4674 91.4393 91.3633 89.5433 91.3633 87.2128V59.9952C91.3633 59.2487 90.7587 58.6447 90.0127 58.6447L90.0123 58.6445ZM88.6618 87.2159C88.6618 88.056 87.9782 88.7402 87.1375 88.7402L61.2674 88.7409V81.9015C62.0579 82.1873 62.8987 82.3375 63.7501 82.3375C67.7713 82.3375 71.0439 79.0662 71.0439 75.0438C71.0439 71.0213 67.7726 67.75 63.7501 67.75C62.8973 67.75 62.0571 67.9002 61.2674 68.186V61.3467H70.4246C70.9503 61.3467 71.4283 61.0418 71.6497 60.5645C71.8712 60.0871 71.7948 59.5258 71.4556 59.1235C70.7568 58.2974 70.3724 57.2454 70.3724 56.1621C70.3724 53.6303 72.432 51.5707 74.9638 51.5707C77.4955 51.5707 79.5551 53.6303 79.5551 56.1621C79.5551 57.2453 79.1701 58.298 78.4719 59.1235C78.1327 59.5258 78.0563 60.0871 78.2778 60.5645C78.4993 61.0418 78.9773 61.3467 79.503 61.3467H88.6601L88.6608 87.2151L88.6618 87.2159Z" fill="black" stroke="black"/>
<defs>
<linearGradient id="paint0_linear_207_13" x1="2.46784" y1="-3.51739" x2="24.5092" y2="-2.13064" gradientUnits="userSpaceOnUse">
<stop stop-color="#0085FF"/>
<stop offset="1" stop-color="#591FFF"/>
</linearGradient>
</defs>
</svg>

<svg width="92" height="92" fill="none" xmlns="http://www.w3.org/2000/svg"><circle cx="10.982" cy="11.06" r="10.5" fill="url(#paint0_linear_207_13)"/><path d="M57.476 34.082a4.596 4.596 0 014.592 4.59 4.593 4.593 0 01-1.083 2.962 1.352 1.352 0 001.03 2.224h10.508a1.35 1.35 0 001.35-1.351v-27.22a4.231 4.231 0 00-4.226-4.227H15.21a4.231 4.231 0 00-4.227 4.226v54.44a4.231 4.231 0 004.227 4.227h27.22a1.35 1.35 0 001.351-1.35V64.41c.79.286 1.632.436 2.483.436 4.021 0 7.294-3.271 7.294-7.294 0-4.022-3.273-7.293-7.294-7.293-.853 0-1.693.15-2.483.436v-6.84h9.157a1.35 1.35 0 001.032-2.223 4.592 4.592 0 01-1.084-2.961 4.597 4.597 0 014.592-4.592v.002zM15.207 13.76h25.87v6.84a7.307 7.307 0 00-2.482-.437c-4.021 0-7.294 3.272-7.294 7.294s3.273 7.294 7.294 7.294a7.3 7.3 0 002.483-.436v6.84H31.92a1.35 1.35 0 00-1.03 2.222 4.59 4.59 0 11-7.017 0 1.352 1.352 0 00-1.031-2.223h-9.16V15.285c0-.84.686-1.525 1.526-1.525h0zm31.055 39.2a4.596 4.596 0 014.591 4.592 4.596 4.596 0 01-4.591 4.592A4.594 4.594 0 0143.3 61.06a1.352 1.352 0 00-2.223 1.032v9.157h-25.87c-.84 0-1.524-.683-1.524-1.524V43.858h6.839a7.306 7.306 0 00-.436 2.482c0 4.021 3.271 7.294 7.294 7.294a7.301 7.301 0 007.293-7.294c0-.853-.15-1.693-.436-2.482h6.84v9.157a1.35 1.35 0 002.223 1.03 4.598 4.598 0 012.962-1.082v-.001zm3.92-14.289a7.3 7.3 0 00.436 2.483H43.78v-9.157a1.35 1.35 0 00-2.223-1.031 4.592 4.592 0 01-2.962 1.083 4.596 4.596 0 01-4.59-4.591 4.596 4.596 0 014.59-4.592c1.084 0 2.136.386 2.962 1.084a1.352 1.352 0 002.223-1.031v-9.16h25.87c.84 0 1.524.684 1.524 1.525v25.87h-6.839a7.31 7.31 0 00.436-2.483c0-4.021-3.271-7.294-7.294-7.294-4.021.001-7.294 3.272-7.294 7.295h0zm39.83 19.973h-8.19a7.331 7.331 0 00.435-2.483c0-4.021-3.272-7.294-7.293-7.294-4.022 0-7.294 3.273-7.294 7.294 0 .853.15 1.693.436 2.483h-8.19a1.35 1.35 0 00-1.35 1.35v10.508a1.35 1.35 0 002.222 1.03 4.592 4.592 0 012.962-1.082 4.596 4.596 0 014.591 4.59 4.596 4.596 0 01-4.591 4.592 4.593 4.593 0 01-2.962-1.083 1.352 1.352 0 00-2.223 1.031v10.51c0 .746.605 1.35 1.35 1.35h27.222a4.231 4.231 0 004.226-4.226V59.995a1.35 1.35 0 00-1.35-1.35h0zm-1.35 28.57c0 .841-.684 1.525-1.525 1.525h-25.87v-6.838c.79.285 1.632.436 2.483.436 4.021 0 7.294-3.272 7.294-7.294a7.301 7.301 0 00-7.294-7.294c-.853 0-1.693.15-2.483.436v-6.84h9.158a1.35 1.35 0 001.03-2.222 4.59 4.59 0 117.017 0 1.352 1.352 0 001.031 2.223h9.157v25.868h.002z" fill="#000" stroke="#000"/><defs><linearGradient id="paint0_linear_207_13" x1="2.468" y1="-3.517" x2="24.509" y2="-2.131" gradientUnits="userSpaceOnUse"><stop stop-color="#0085FF"/><stop offset="1" stop-color="#591FFF"/></linearGradient></defs></svg>
